;FLAVOR:Marlin
;TIME:10792
;Filament used: 8.85458m
;Layer height: 0.2
;MINX:27.848
;MINY:19.211
;MINZ:0.2
;MAXX:163.427
;MAXY:157.333
;MAXZ:53
;Generated with Cura_SteamEngine 5.2.1
M82 ;absolute extrusion mode
M201 X1250 Y1250 Z400 E5000 ; sets maximum accelerations
M203 X180 Y180 Z12 E80 ; sets maximum feedrates
M205 X8.00 Y8.00 Z2.00 E10.00 ; sets the jerk limits
M221 S100 ; reset flow
G90 ; use absolute positioning
M82 ; absolute extrusion mode
M104 S170 ; set extruder temp for bed leveling
M140 S60 ; set bed temp
M109 R170 ; wait for extruder temp
M190 S60 ; wait for bed temp
G28 ; home all
G29 ; mesh bed leveling
M104 S200 ; set extruder temp
G92 E0.0
G1 Y-2 X179 F2400
G1 Z3 F720
M109 S200 ; wait for extruder temp
G92 E0.0
G1 X170 F1000
G1 Z0.2 F720
G1 X110 E8 F900
G1 X40 E18 F900
G92 E0.0
M900 K0.2 ; LA
G92 E0
G92 E0
G1 F4200 E-3.5
;LAYER_COUNT:265
;LAYER:0
M107
G0 F3600 X36.547 Y22.557 Z0.2
;TYPE:SKIRT
G1 F4200 E0
G1 F1800 X37.03 Y21.933 E0.02625
G1 X37.573 Y21.36 E0.0525
G1 X38.172 Y20.845 E0.07878
G1 X38.82 Y20.394 E0.10503
G1 X39.511 Y20.01 E0.13133
G1 X40.236 Y19.698 E0.15758
G1 X40.989 Y19.461 E0.18383
G1 X41.763 Y19.302 E0.21012
G1 X42.645 Y19.211 E0.23961
G1 X137.95 Y19.211 E3.40946
G1 X138.739 Y19.251 E3.43574
G1 X139.519 Y19.37 E3.46198
G1 X140.284 Y19.568 E3.48827
G1 X141.024 Y19.842 E3.51451
G1 X141.733 Y20.19 E3.54078
G1 X142.404 Y20.608 E3.56707
G1 X143.028 Y21.091 E3.59332
G1 X143.601 Y21.634 E3.61958
G1 X144.116 Y22.233 E3.64585
G1 X144.567 Y22.881 E3.67211
G1 X144.951 Y23.572 E3.6984
G1 X145.263 Y24.297 E3.72465
G1 X145.5 Y25.05 E3.75091
G1 X145.659 Y25.824 E3.77719
G1 X145.75 Y26.706 E3.80668
G1 X145.75 Y92.011 E5.97873
G1 X145.71 Y92.8 E6.00501
G1 X145.591 Y93.58 E6.03125
G1 X145.393 Y94.345 E6.05754
G1 X145.119 Y95.085 E6.08378
G1 X144.771 Y95.794 E6.11005
G1 X144.353 Y96.465 E6.13634
G1 X143.87 Y97.089 E6.16259
G1 X143.327 Y97.662 E6.18884
G1 X142.728 Y98.177 E6.21512
G1 X142.08 Y98.628 E6.24138
G1 X141.389 Y99.012 E6.26767
G1 X140.664 Y99.324 E6.29392
G1 X139.911 Y99.561 E6.32018
G1 X139.137 Y99.72 E6.34646
G1 X138.255 Y99.811 E6.37595
G1 X42.95 Y99.811 E9.54581
G1 X42.161 Y99.771 E9.57208
G1 X41.381 Y99.652 E9.59833
G1 X40.616 Y99.454 E9.62461
G1 X39.876 Y99.18 E9.65085
G1 X39.167 Y98.832 E9.67712
G1 X38.496 Y98.414 E9.70342
G1 X37.872 Y97.931 E9.72966
G1 X37.299 Y97.388 E9.75592
G1 X36.784 Y96.789 E9.78219
G1 X36.333 Y96.141 E9.80845
G1 X35.949 Y95.45 E9.83474
G1 X35.637 Y94.725 E9.861
G1 X35.4 Y93.972 E9.88725
G1 X35.241 Y93.198 E9.91353
G1 X35.15 Y92.316 E9.94302
G1 X35.15 Y27.011 E12.11508
G1 X35.19 Y26.222 E12.14135
G1 X35.309 Y25.442 E12.1676
G1 X35.507 Y24.677 E12.19388
G1 X35.781 Y23.937 E12.22012
G1 X36.129 Y23.228 E12.24639
G1 X36.547 Y22.557 E12.27269
G0 F3600 X36.944 Y22.688
G1 F1800 X37.425 Y22.088 E12.29826
G1 X37.966 Y21.541 E12.32385
G1 X38.561 Y21.053 E12.34945
G1 X39.203 Y20.63 E12.37502
G1 X39.886 Y20.275 E12.40062
G1 X40.601 Y19.994 E12.42617
G1 X41.343 Y19.788 E12.45178
G1 X42.101 Y19.66 E12.47735
G1 X42.95 Y19.611 E12.50564
G1 X137.95 Y19.611 E15.66535
G1 X138.718 Y19.651 E15.69093
G1 X139.478 Y19.77 E15.71651
G1 X140.221 Y19.968 E15.74209
G1 X140.94 Y20.242 E15.76768
G1 X141.626 Y20.589 E15.79325
G1 X142.273 Y21.005 E15.81883
G1 X142.873 Y21.486 E15.84441
G1 X143.42 Y22.027 E15.87
G1 X143.908 Y22.622 E15.89559
G1 X144.331 Y23.264 E15.92116
G1 X144.686 Y23.947 E15.94677
G1 X144.967 Y24.662 E15.97232
G1 X145.173 Y25.404 E15.99793
G1 X145.301 Y26.162 E16.0235
G1 X145.35 Y27.011 E16.05178
G1 X145.35 Y92.011 E18.21369
G1 X145.31 Y92.779 E18.23927
G1 X145.191 Y93.539 E18.26486
G1 X144.993 Y94.282 E18.29043
G1 X144.719 Y95.001 E18.31602
G1 X144.372 Y95.687 E18.34159
G1 X143.956 Y96.334 E18.36718
G1 X143.475 Y96.934 E18.39275
G1 X142.934 Y97.481 E18.41834
G1 X142.339 Y97.969 E18.44394
G1 X141.697 Y98.392 E18.46951
G1 X141.014 Y98.747 E18.49511
G1 X140.299 Y99.028 E18.52066
G1 X139.557 Y99.234 E18.54627
G1 X138.799 Y99.362 E18.57184
G1 X137.95 Y99.411 E18.60013
G1 X42.95 Y99.411 E21.75984
G1 X42.182 Y99.371 E21.78542
G1 X41.422 Y99.252 E21.811
G1 X40.679 Y99.054 E21.83658
G1 X39.96 Y98.78 E21.86217
G1 X39.274 Y98.433 E21.88774
G1 X38.627 Y98.017 E21.91332
G1 X38.027 Y97.536 E21.9389
G1 X37.48 Y96.995 E21.96449
G1 X36.992 Y96.4 E21.99008
G1 X36.569 Y95.758 E22.01565
G1 X36.214 Y95.075 E22.04126
G1 X35.933 Y94.36 E22.06681
G1 X35.727 Y93.618 E22.09242
G1 X35.599 Y92.86 E22.11799
G1 X35.55 Y92.011 E22.14627
G1 X35.55 Y27.011 E24.30818
G1 X35.59 Y26.243 E24.33376
G1 X35.709 Y25.483 E24.35935
G1 X35.907 Y24.74 E24.38492
G1 X36.181 Y24.021 E24.41051
G1 X36.528 Y23.335 E24.43608
G1 X36.944 Y22.688 E24.46167
G0 F3600 X37.342 Y22.822
G1 F1800 X37.821 Y22.248 E24.48653
G1 X38.358 Y21.727 E24.51142
G1 X38.948 Y21.268 E24.53628
G1 X39.584 Y20.873 E24.56118
G1 X40.258 Y20.549 E24.58605
G1 X40.963 Y20.299 E24.61093
G1 X41.691 Y20.125 E24.63583
G1 X42.433 Y20.03 E24.66071
G1 X42.95 Y20.011 E24.67791
G1 X137.95 Y20.011 E27.83763
G1 X138.697 Y20.051 E27.86251
G1 X139.435 Y20.17 E27.88737
G1 X140.157 Y20.368 E27.91227
G1 X140.853 Y20.641 E27.93714
G1 X141.516 Y20.988 E27.96203
G1 X142.139 Y21.403 E27.98692
G1 X142.713 Y21.882 E28.01179
G1 X143.234 Y22.419 E28.03668
G1 X143.693 Y23.009 E28.06154
G1 X144.088 Y23.645 E28.08644
G1 X144.412 Y24.319 E28.11131
G1 X144.662 Y25.024 E28.13619
G1 X144.836 Y25.752 E28.16109
G1 X144.931 Y26.494 E28.18597
G1 X144.95 Y27.011 E28.20317
G1 X144.95 Y92.011 E30.36508
G1 X144.91 Y92.758 E30.38996
G1 X144.791 Y93.496 E30.41483
G1 X144.593 Y94.218 E30.43973
G1 X144.32 Y94.914 E30.46459
G1 X143.973 Y95.577 E30.48948
G1 X143.558 Y96.2 E30.51438
G1 X143.079 Y96.774 E30.53925
G1 X142.542 Y97.295 E30.56413
G1 X141.952 Y97.754 E30.58899
G1 X141.316 Y98.149 E30.61389
G1 X140.642 Y98.473 E30.63877
G1 X139.937 Y98.723 E30.66365
G1 X139.209 Y98.897 E30.68854
G1 X138.467 Y98.992 E30.71342
G1 X137.95 Y99.011 E30.73063
G1 X42.95 Y99.011 E33.89034
G1 X42.203 Y98.971 E33.91522
G1 X41.465 Y98.852 E33.94009
G1 X40.743 Y98.654 E33.96499
G1 X40.047 Y98.381 E33.98985
G1 X39.384 Y98.034 E34.01474
G1 X38.761 Y97.619 E34.03964
G1 X38.187 Y97.14 E34.06451
G1 X37.666 Y96.603 E34.08939
G1 X37.207 Y96.013 E34.11425
G1 X36.812 Y95.377 E34.13915
G1 X36.488 Y94.703 E34.16403
G1 X36.238 Y93.998 E34.18891
G1 X36.064 Y93.27 E34.2138
G1 X35.969 Y92.528 E34.23868
G1 X35.95 Y92.011 E34.25589
G1 X35.95 Y27.011 E36.4178
G1 X35.99 Y26.264 E36.44268
G1 X36.109 Y25.526 E36.46754
G1 X36.307 Y24.804 E36.49244
G1 X36.58 Y24.108 E36.51731
G1 X36.927 Y23.445 E36.5422
G1 X37.342 Y22.822 E36.5671
G0 F3600 X37.739 Y22.961
G1 F1800 X38.215 Y22.413 E36.59124
G1 X38.749 Y21.92 E36.61541
G1 X39.334 Y21.49 E36.63956
G1 X39.963 Y21.126 E36.66373
G1 X40.628 Y20.833 E36.6879
G1 X41.321 Y20.615 E36.71206
G1 X42.033 Y20.475 E36.7362
G1 X42.95 Y20.411 E36.76677
G1 X137.95 Y20.411 E39.92648
G1 X138.675 Y20.451 E39.95063
G1 X139.392 Y20.57 E39.97481
G1 X140.091 Y20.768 E39.99897
G1 X140.764 Y21.041 E40.02313
G1 X141.403 Y21.386 E40.04728
G1 X142 Y21.8 E40.07144
G1 X142.548 Y22.276 E40.09559
G1 X143.041 Y22.81 E40.11976
G1 X143.471 Y23.395 E40.14391
G1 X143.835 Y24.024 E40.16808
G1 X144.128 Y24.689 E40.19225
G1 X144.346 Y25.382 E40.21641
G1 X144.486 Y26.094 E40.24054
G1 X144.55 Y27.011 E40.27112
G1 X144.55 Y92.011 E42.43303
G1 X144.51 Y92.736 E42.45718
G1 X144.391 Y93.453 E42.48135
G1 X144.193 Y94.152 E42.50551
G1 X143.92 Y94.825 E42.52967
G1 X143.575 Y95.464 E42.55382
G1 X143.161 Y96.061 E42.57799
G1 X142.685 Y96.609 E42.60213
G1 X142.151 Y97.102 E42.6263
G1 X141.566 Y97.532 E42.65045
G1 X140.937 Y97.896 E42.67462
G1 X140.272 Y98.189 E42.69879
G1 X139.579 Y98.407 E42.72295
G1 X138.867 Y98.547 E42.74709
G1 X137.95 Y98.611 E42.77766
G1 X42.95 Y98.611 E45.93737
G1 X42.225 Y98.571 E45.96152
G1 X41.508 Y98.452 E45.9857
G1 X40.809 Y98.254 E46.00986
G1 X40.136 Y97.981 E46.03402
G1 X39.497 Y97.636 E46.05817
G1 X38.9 Y97.222 E46.08233
G1 X38.352 Y96.746 E46.10648
G1 X37.859 Y96.212 E46.13065
G1 X37.429 Y95.627 E46.1548
G1 X37.065 Y94.998 E46.17897
G1 X36.772 Y94.333 E46.20314
G1 X36.554 Y93.64 E46.2273
G1 X36.414 Y92.928 E46.25144
G1 X36.35 Y92.011 E46.28201
G1 X36.35 Y27.011 E48.44392
G1 X36.39 Y26.286 E48.46807
G1 X36.509 Y25.569 E48.49224
G1 X36.707 Y24.87 E48.51641
G1 X36.98 Y24.197 E48.54056
G1 X37.325 Y23.558 E48.56471
G1 X37.739 Y22.961 E48.58888
G0 F3600 X38.135 Y23.105
G1 F1800 X38.609 Y22.584 E48.6123
G1 X39.139 Y22.12 E48.63573
G1 X39.718 Y21.72 E48.65914
G1 X40.339 Y21.388 E48.68256
G1 X40.993 Y21.128 E48.70597
G1 X41.673 Y20.944 E48.7294
G1 X42.369 Y20.838 E48.75282
G1 X42.95 Y20.811 E48.77216
G1 X137.95 Y20.811 E51.93187
G1 X138.653 Y20.851 E51.95529
G1 X139.347 Y20.97 E51.97871
G1 X140.022 Y21.168 E52.00211
G1 X140.671 Y21.44 E52.02551
G1 X141.285 Y21.785 E52.04894
G1 X141.856 Y22.196 E52.07234
G1 X142.377 Y22.67 E52.09577
G1 X142.841 Y23.2 E52.11919
G1 X143.241 Y23.779 E52.1426
G1 X143.573 Y24.4 E52.16602
G1 X143.833 Y25.054 E52.18943
G1 X144.017 Y25.734 E52.21286
G1 X144.123 Y26.43 E52.23628
G1 X144.15 Y27.011 E52.25562
G1 X144.15 Y92.011 E54.41753
G1 X144.11 Y92.714 E54.44095
G1 X143.991 Y93.408 E54.46437
G1 X143.793 Y94.083 E54.48776
G1 X143.521 Y94.732 E54.51117
G1 X143.176 Y95.346 E54.53459
G1 X142.765 Y95.917 E54.55799
G1 X142.291 Y96.438 E54.58142
G1 X141.761 Y96.902 E54.60485
G1 X141.182 Y97.302 E54.62826
G1 X140.561 Y97.634 E54.65168
G1 X139.907 Y97.894 E54.67509
G1 X139.227 Y98.078 E54.69852
G1 X138.531 Y98.184 E54.72193
G1 X137.95 Y98.211 E54.74128
G1 X42.95 Y98.211 E57.90099
G1 X42.247 Y98.171 E57.92441
G1 X41.553 Y98.052 E57.94783
G1 X40.878 Y97.854 E57.97123
G1 X40.229 Y97.582 E57.99463
G1 X39.615 Y97.237 E58.01805
G1 X39.044 Y96.826 E58.04145
G1 X38.523 Y96.352 E58.06488
G1 X38.059 Y95.822 E58.08831
G1 X37.659 Y95.243 E58.11172
G1 X37.327 Y94.622 E58.13514
G1 X37.067 Y93.968 E58.15855
G1 X36.883 Y93.288 E58.18198
G1 X36.777 Y92.592 E58.20539
G1 X36.75 Y92.011 E58.22474
G1 X36.75 Y27.011 E60.38665
G1 X36.79 Y26.308 E60.41007
G1 X36.909 Y25.614 E60.43348
G1 X37.107 Y24.939 E60.45688
G1 X37.379 Y24.29 E60.48029
G1 X37.724 Y23.676 E60.50371
G1 X38.135 Y23.105 E60.52711
G0 F3600 X38.532 Y23.253
G1 F1800 X39.003 Y22.762 E60.54974
G1 X39.528 Y22.328 E60.5724
G1 X40.1 Y21.959 E60.59504
G1 X40.712 Y21.66 E60.61769
G1 X41.354 Y21.435 E60.64032
G1 X42.019 Y21.286 E60.66298
G1 X42.95 Y21.211 E60.69405
G1 X137.95 Y21.211 E63.85376
G1 X138.63 Y21.251 E63.87642
G1 X139.3 Y21.37 E63.89905
G1 X139.952 Y21.567 E63.9217
G1 X140.576 Y21.839 E63.94434
G1 X141.164 Y22.183 E63.967
G1 X141.708 Y22.593 E63.98966
G1 X142.199 Y23.064 E64.01229
G1 X142.633 Y23.589 E64.03494
G1 X143.002 Y24.161 E64.05758
G1 X143.301 Y24.773 E64.08024
G1 X143.526 Y25.415 E64.10287
G1 X143.675 Y26.08 E64.12553
G1 X143.75 Y27.011 E64.1566
G1 X143.75 Y92.011 E66.31851
G1 X143.71 Y92.691 E66.34116
G1 X143.591 Y93.361 E66.3638
G1 X143.394 Y94.013 E66.38645
G1 X143.122 Y94.637 E66.40909
G1 X142.778 Y95.225 E66.43175
G1 X142.368 Y95.769 E66.4544
G1 X141.897 Y96.26 E66.47703
G1 X141.372 Y96.694 E66.49969
G1 X140.8 Y97.063 E66.52233
G1 X140.188 Y97.362 E66.54498
G1 X139.546 Y97.587 E66.56761
G1 X138.881 Y97.736 E66.59028
G1 X137.95 Y97.811 E66.62134
G1 X42.95 Y97.811 E69.78106
G1 X42.27 Y97.771 E69.80371
G1 X41.6 Y97.652 E69.82634
G1 X40.948 Y97.455 E69.849
G1 X40.324 Y97.183 E69.87164
G1 X39.736 Y96.839 E69.8943
G1 X39.192 Y96.429 E69.91695
G1 X38.701 Y95.958 E69.93958
G1 X38.267 Y95.433 E69.96224
G1 X37.898 Y94.861 E69.98488
G1 X37.599 Y94.249 E70.00753
G1 X37.374 Y93.607 E70.03016
G1 X37.225 Y92.942 E70.05283
G1 X37.15 Y92.011 E70.08389
G1 X37.15 Y27.011 E72.2458
G1 X37.19 Y26.331 E72.26846
G1 X37.309 Y25.661 E72.29109
G1 X37.506 Y25.009 E72.31374
G1 X37.778 Y24.385 E72.33638
G1 X38.122 Y23.797 E72.35904
G1 X38.532 Y23.253 E72.3817
G0 F3600 X38.928 Y23.408
G1 F1800 X39.395 Y22.946 E72.40355
G1 X39.915 Y22.545 E72.42539
G1 X40.479 Y22.209 E72.44722
G1 X41.081 Y21.945 E72.46909
G1 X41.71 Y21.755 E72.49094
G1 X42.357 Y21.644 E72.51277
G1 X42.95 Y21.611 E72.53253
G1 X137.95 Y21.611 E75.69224
G1 X138.606 Y21.651 E75.7141
G1 X139.252 Y21.77 E75.73595
G1 X139.879 Y21.967 E75.75781
G1 X140.477 Y22.239 E75.77966
G1 X141.038 Y22.581 E75.80151
G1 X141.553 Y22.989 E75.82336
G1 X142.015 Y23.456 E75.84521
G1 X142.416 Y23.976 E75.86705
G1 X142.752 Y24.54 E75.88889
G1 X143.016 Y25.142 E75.91075
G1 X143.206 Y25.771 E75.93261
G1 X143.317 Y26.418 E75.95444
G1 X143.35 Y27.011 E75.97419
G1 X143.35 Y92.011 E78.1361
G1 X143.31 Y92.667 E78.15796
G1 X143.191 Y93.313 E78.17981
G1 X142.994 Y93.94 E78.20167
G1 X142.722 Y94.538 E78.22352
G1 X142.38 Y95.099 E78.24537
G1 X141.972 Y95.614 E78.26722
G1 X141.505 Y96.076 E78.28907
G1 X140.985 Y96.477 E78.31091
G1 X140.421 Y96.813 E78.33275
G1 X139.819 Y97.077 E78.35461
G1 X139.19 Y97.267 E78.37647
G1 X138.543 Y97.378 E78.3983
G1 X137.95 Y97.411 E78.41805
G1 X42.95 Y97.411 E81.57777
G1 X42.294 Y97.371 E81.59963
G1 X41.648 Y97.252 E81.62147
G1 X41.021 Y97.055 E81.64333
G1 X40.423 Y96.783 E81.66518
G1 X39.862 Y96.441 E81.68704
G1 X39.347 Y96.033 E81.70889
G1 X38.885 Y95.566 E81.73074
G1 X38.484 Y95.046 E81.75258
G1 X38.148 Y94.482 E81.77441
G1 X37.884 Y93.88 E81.79628
G1 X37.694 Y93.251 E81.81813
G1 X37.583 Y92.604 E81.83996
G1 X37.55 Y92.011 E81.85972
G1 X37.55 Y27.011 E84.02163
G1 X37.59 Y26.355 E84.04349
G1 X37.709 Y25.709 E84.06533
G1 X37.906 Y25.082 E84.08719
G1 X38.178 Y24.484 E84.10904
G1 X38.52 Y23.923 E84.1309
G1 X38.928 Y23.408 E84.15275
G0 F3600 X39.323 Y23.57
G1 F1800 X39.786 Y23.14 E84.17377
G1 X40.3 Y22.771 E84.19481
G1 X40.856 Y22.471 E84.21582
G1 X41.445 Y22.243 E84.23683
G1 X42.059 Y22.091 E84.25787
G1 X42.95 Y22.011 E84.28762
G1 X137.95 Y22.011 E87.44734
G1 X138.581 Y22.051 E87.46836
G1 X139.202 Y22.17 E87.48939
G1 X139.802 Y22.367 E87.5104
G1 X140.374 Y22.638 E87.53145
G1 X140.906 Y22.978 E87.55245
G1 X141.391 Y23.384 E87.57349
G1 X141.821 Y23.847 E87.5945
G1 X142.19 Y24.361 E87.61555
G1 X142.49 Y24.917 E87.63656
G1 X142.718 Y25.506 E87.65757
G1 X142.87 Y26.12 E87.67861
G1 X142.95 Y27.011 E87.70836
G1 X142.95 Y92.011 E89.87027
G1 X142.91 Y92.642 E89.8913
G1 X142.791 Y93.263 E89.91233
G1 X142.594 Y93.863 E89.93333
G1 X142.323 Y94.435 E89.95439
G1 X141.983 Y94.967 E89.97538
G1 X141.577 Y95.452 E89.99642
G1 X141.114 Y95.882 E90.01744
G1 X140.6 Y96.251 E90.03848
G1 X140.044 Y96.551 E90.0595
G1 X139.455 Y96.779 E90.0805
G1 X138.841 Y96.931 E90.10154
G1 X137.95 Y97.011 E90.13129
G1 X42.95 Y97.011 E93.29101
G1 X42.319 Y96.971 E93.31204
G1 X41.698 Y96.852 E93.33307
G1 X41.098 Y96.655 E93.35407
G1 X40.526 Y96.384 E93.37512
G1 X39.994 Y96.044 E93.39612
G1 X39.509 Y95.638 E93.41716
G1 X39.079 Y95.175 E93.43818
G1 X38.71 Y94.661 E93.45922
G1 X38.41 Y94.105 E93.48023
G1 X38.182 Y93.516 E93.50124
G1 X38.03 Y92.902 E93.52228
G1 X37.95 Y92.011 E93.55203
G1 X37.95 Y27.011 E95.71394
G1 X37.99 Y26.38 E95.73497
G1 X38.109 Y25.759 E95.756
G1 X38.306 Y25.159 E95.77701
G1 X38.577 Y24.587 E95.79806
G1 X38.917 Y24.055 E95.81906
G1 X39.323 Y23.57 E95.84009
G0 F3600 X39.717 Y23.739
G1 F1800 X40.175 Y23.342 E95.86025
G1 X40.682 Y23.009 E95.88043
G1 X41.228 Y22.745 E95.9006
G1 X41.804 Y22.556 E95.92076
G1 X42.4 Y22.444 E95.94093
G1 X42.95 Y22.411 E95.95926
G1 X137.95 Y22.411 E99.11897
G1 X138.555 Y22.451 E99.13914
G1 X139.149 Y22.57 E99.15929
G1 X139.723 Y22.766 E99.17946
G1 X140.266 Y23.037 E99.19964
G1 X140.769 Y23.376 E99.21982
G1 X141.222 Y23.778 E99.23996
G1 X141.619 Y24.236 E99.26012
G1 X141.952 Y24.743 E99.2803
G1 X142.216 Y25.289 E99.30047
G1 X142.405 Y25.865 E99.32063
G1 X142.517 Y26.461 E99.3408
G1 X142.55 Y27.011 E99.35913
G1 X142.55 Y92.011 E101.52104
G1 X142.51 Y92.616 E101.5412
G1 X142.391 Y93.21 E101.56135
G1 X142.195 Y93.784 E101.58153
G1 X141.924 Y94.327 E101.60171
G1 X141.585 Y94.83 E101.62189
G1 X141.183 Y95.283 E101.64203
G1 X140.725 Y95.68 E101.66219
G1 X140.218 Y96.013 E101.68236
G1 X139.672 Y96.277 E101.70253
G1 X139.096 Y96.466 E101.7227
G1 X138.5 Y96.578 E101.74287
G1 X137.95 Y96.611 E101.76119
G1 X42.95 Y96.611 E104.92091
G1 X42.345 Y96.571 E104.94107
G1 X41.751 Y96.452 E104.96122
